icons/editor/tracking.svg

<svg width="32" height="32" viewBox="0 0 32 32" fill="none" xmlns="http://www.w3.org/2000/svg">
<path fill-rule="evenodd" clip-rule="evenodd" d="M22.0002 6.97322L19.8477 13H24.1526L22.0002 6.97322ZM17.9419 18.3363L19.1334 15H24.8669L26.0584 18.3363L27.9419 17.6637L22.9419 3.66367H21.0584L16.0584 17.6637L17.9419 18.3363ZM3.08594 25L3.79304 24.2929L7.79304 20.2929L9.20726 21.7071L6.91459 23.9998L16.0004 23.9998V24.0002L25.0862 24.0002L22.793 21.7071L24.2073 20.2929L28.2073 24.2929L28.9144 25L28.2073 25.7071L24.2073 29.7071L22.793 28.2929L25.0857 26.0002L15.9999 26.0002V25.9998L6.91414 25.9998L9.20726 28.2929L7.79304 29.7071L3.79304 25.7071L3.08594 25ZM4.05841 4.33634L9.05841 18.3363H10.9419L15.9419 4.33634L14.0584 3.66367L10.0002 15.0268L5.94189 3.66367L4.05841 4.33634Z" fill="black"/>
</svg>

<svg width="32" height="32" viewBox="0 0 32 32" xmlns="http://www.w3.org/2000/svg">
    <path fill-rule="evenodd" d="M22 6.973L19.848 13h4.305L22 6.973zm-4.058 11.363L19.133 15h5.734l1.191 3.336 1.884-.672-5-14h-1.884l-5 14 1.884.672zM3.086 25l.707-.707 4-4 1.414 1.414L6.915 24h18.171l-2.293-2.293 1.414-1.414 4 4 .707.707-.707.707-4 4-1.414-1.414L25.086 26H6.914l2.293 2.293-1.414 1.414-4-4L3.086 25zm.972-20.664l5 14h1.884l5-14-1.884-.672L10 15.027 5.942 3.664l-1.884.672z"/>
</svg>
